assets/icon-figma-color.svg

<svg fill="none" height="24" viewBox="0 0 24 24" width="24" xmlns="http://www.w3.org/2000/svg" xmlns:xlink="http://www.w3.org/1999/xlink"><clipPath id="a"><path d="m6 3h12v18h-12z"/></clipPath><g clip-path="url(#a)"><path d="m6 18c0-1.6569 1.34315-3 3-3h3v3c0 1.6569-1.3431 3-3 3-1.65685 0-3-1.3431-3-3z" fill="#24cb71"/><path d="m12 3v6h3c1.6569 0 3-1.34315 3-3s-1.3431-3-3-3z" fill="#ff7237"/><path d="m14.9751 15c1.6569 0 3-1.3431 3-3s-1.3431-3-3-3-3 1.3431-3 3 1.3431 3 3 3z" fill="#00b6ff"/><path d="m6 6c0 1.65685 1.34315 3 3 3h3v-6h-3c-1.65685 0-3 1.34315-3 3z" fill="#ff3737"/><path d="m6 12c0 1.6569 1.34315 3 3 3h3v-6h-3c-1.65685 0-3 1.3431-3 3z" fill="#874fff"/></g></svg>

<svg width="24" height="24" viewBox="0 0 24 24" fill="none" xmlns="http://www.w3.org/2000/svg">
<g clip-path="url(#clip0_2008_2976)">
<path d="M6 18C6 16.3431 7.34315 15 9 15H12V18C12 19.6569 10.6569 21 9 21C7.34315 21 6 19.6569 6 18Z" fill="#24CB71"/>
<path d="M12 3V9H15C16.6569 9 18 7.65685 18 6C18 4.34315 16.6569 3 15 3H12Z" fill="#FF7237"/>
<path d="M14.9751 15C16.632 15 17.9751 13.6569 17.9751 12C17.9751 10.3431 16.632 9 14.9751 9C13.3182 9 11.9751 10.3431 11.9751 12C11.9751 13.6569 13.3182 15 14.9751 15Z" fill="#00B6FF"/>
<path d="M6 6C6 7.65685 7.34315 9 9 9H12V3H9C7.34315 3 6 4.34315 6 6Z" fill="#FF3737"/>
<path d="M6 12C6 13.6569 7.34315 15 9 15H12V9H9C7.34315 9 6 10.3431 6 12Z" fill="#874FFF"/>
</g>
<defs>
<clipPath id="clip0_2008_2976">
<rect width="12" height="18" fill="white" transform="translate(6 3)"/>
</clipPath>
</defs>
</svg>
